flaticon/user-interface/quote.svg

<svg xmlns="http://www.w3.org/2000/svg" width="32" height="32" viewBox="0 0 24 24">
    <path d="M 0 0 L 0 24 L 24 24 L 24 0 Z M 23.1875 23.1875 L 0.8125 23.1875 L 0.8125 0.8125 L 23.1875 0.8125 Z M 23.1875 23.1875"/>
    <path d="M7.933594 15.863281C9.390625 15.863281 10.578125 14.679688 10.578125 13.21875 10.578125 11.761719 9.390625 10.578125 7.933594 10.578125 7.429688 10.578125 6.960938 10.71875 6.558594 10.964844 7.335938 9.296875 9.023438 8.136719 10.984375 8.136719 11.207031 8.136719 11.390625 7.953125 11.390625 7.730469 11.390625 7.503906 11.207031 7.320312 10.984375 7.320312 7.84375 7.320312 5.289062 9.875 5.289062 13.015625 5.289062 13.03125 5.296875 13.042969 5.296875 13.058594 5.292969 13.113281 5.289062 13.164062 5.289062 13.21875 5.289062 14.679688 6.472656 15.863281 7.933594 15.863281zM7.933594 11.390625C8.941406 11.390625 9.761719 12.210938 9.761719 13.21875 9.761719 14.230469 8.941406 15.050781 7.933594 15.050781 6.921875 15.050781 6.101562 14.230469 6.101562 13.21875 6.101562 12.210938 6.921875 11.390625 7.933594 11.390625zM14.847656 15.863281C16.304688 15.863281 17.492188 14.679688 17.492188 13.21875 17.492188 11.761719 16.304688 10.578125 14.847656 10.578125 14.34375 10.578125 13.875 10.71875 13.476562 10.964844 14.253906 9.296875 15.941406 8.136719 17.898438 8.136719 18.125 8.136719 18.304688 7.953125 18.304688 7.730469 18.304688 7.503906 18.125 7.320312 17.898438 7.320312 14.757812 7.320312 12.203125 9.875 12.203125 13.015625 12.203125 13.03125 12.210938 13.042969 12.210938 13.058594 12.207031 13.113281 12.203125 13.164062 12.203125 13.21875 12.203125 14.679688 13.390625 15.863281 14.847656 15.863281zM14.847656 11.390625C15.855469 11.390625 16.679688 12.210938 16.679688 13.21875 16.679688 14.230469 15.855469 15.050781 14.847656 15.050781 13.839844 15.050781 13.015625 14.230469 13.015625 13.21875 13.015625 12.210938 13.839844 11.390625 14.847656 11.390625zM14.847656 11.390625"/>
</svg>

<svg xmlns="http://www.w3.org/2000/svg" width="32" height="32" viewBox="0 0 24 24">
    <path d="M0 0v24h24V0zm23.188 23.188H.813V.813h22.375zm0 0"/>
    <path d="M7.934 15.863a2.647 2.647 0 0 0 2.644-2.644 2.646 2.646 0 0 0-4.02-2.254 4.884 4.884 0 0 1 4.426-2.828.408.408 0 0 0 0-.817 5.701 5.701 0 0 0-5.695 5.696c0 .015.008.027.008.043-.004.054-.008.105-.008.16a2.644 2.644 0 0 0 2.645 2.644zm0-4.472a1.83 1.83 0 1 1-.005 3.66 1.83 1.83 0 0 1 .005-3.66zm0 0M14.848 15.863a2.647 2.647 0 0 0 2.644-2.644 2.646 2.646 0 0 0-2.644-2.64c-.504 0-.973.14-1.371.386a4.882 4.882 0 0 1 4.421-2.828.406.406 0 0 0 .407-.407c0-.226-.18-.41-.407-.41a5.701 5.701 0 0 0-5.695 5.696c0 .015.008.027.008.043-.004.054-.008.105-.008.16a2.647 2.647 0 0 0 2.645 2.644zm0-4.472c1.007 0 1.832.82 1.832 1.828a1.835 1.835 0 0 1-1.832 1.832 1.835 1.835 0 0 1-1.832-1.832c0-1.008.824-1.828 1.832-1.828zm0 0"/>
</svg>
